images/linkedin-logo.svg

<svg enable-background="new 0 0 510 510" height="512" viewBox="0 0 510 510" width="512" xmlns="http://www.w3.org/2000/svg"><path d="m459 0h-408c-28.05 0-51 22.95-51 51v408c0 28.05 22.95 51 51 51h408c28.05 0 51-22.95 51-51v-408c0-28.05-22.95-51-51-51zm-306 433.5h-76.5v-229.5h76.5zm-38.25-272.85c-25.5 0-45.9-20.4-45.9-45.9s20.4-45.9 45.9-45.9 45.9 20.4 45.9 45.9-20.4 45.9-45.9 45.9zm318.75 272.85h-76.5v-135.15c0-20.399-17.85-38.25-38.25-38.25s-38.25 17.851-38.25 38.25v135.15h-76.5v-229.5h76.5v30.6c12.75-20.4 40.8-35.7 63.75-35.7 48.45 0 89.25 40.8 89.25 89.25z" fill="#4875b4"/></svg>

<?xml version="1.0" encoding="iso-8859-1"?>
<!-- Generator: Adobe Illustrator 16.0.0, SVG Export Plug-In . SVG Version: 6.00 Build 0)  -->
<!DOCTYPE svg PUBLIC "-//W3C//DTD SVG 1.1//EN" "http://www.w3.org/Graphics/SVG/1.1/DTD/svg11.dtd">
<svg xmlns="http://www.w3.org/2000/svg" xmlns:xlink="http://www.w3.org/1999/xlink" version="1.1" id="Capa_1" x="0px" y="0px" width="512px" height="512px" viewBox="0 0 510 510" style="enable-background:new 0 0 510 510;" xml:space="preserve">
<g>
	<g id="post-linkedin">
		<path d="M459,0H51C22.95,0,0,22.95,0,51v408c0,28.05,22.95,51,51,51h408c28.05,0,51-22.95,51-51V51C510,22.95,487.05,0,459,0z     M153,433.5H76.5V204H153V433.5z M114.75,160.65c-25.5,0-45.9-20.4-45.9-45.9s20.4-45.9,45.9-45.9s45.9,20.4,45.9,45.9    S140.25,160.65,114.75,160.65z M433.5,433.5H357V298.35c0-20.399-17.85-38.25-38.25-38.25s-38.25,17.851-38.25,38.25V433.5H204    V204h76.5v30.6c12.75-20.4,40.8-35.7,63.75-35.7c48.45,0,89.25,40.8,89.25,89.25V433.5z" fill="#4875b4"/>
	</g>
</g>
<g>
</g>
<g>
</g>
<g>
</g>
<g>
</g>
<g>
</g>
<g>
</g>
<g>
</g>
<g>
</g>
<g>
</g>
<g>
</g>
<g>
</g>
<g>
</g>
<g>
</g>
<g>
</g>
<g>
</g>
</svg>
